svgs/sharp-light/shelves-empty.svg

<svg xmlns="http://www.w3.org/2000/svg" viewBox="0 0 640 512"><!--! Font Awesome Pro 6.6.0 by @fontawesome - https://fontawesome.com License - https://fontawesome.com/license (Commercial License) Copyright 2024 Fonticons, Inc. --><path d="M32 16L32 0 0 0 0 16 0 160l0 16 0 16L0 416l0 16 0 16 0 48 0 16 32 0 0-16 0-48 576 0 0 48 0 16 32 0 0-16 0-48 0-16 0-16 0-224 0-16 0-16 0-144 0-16L608 0l0 16 0 144L32 160 32 16zm0 176l576 0 0 224L32 416l0-224z"/></svg>

<svg xmlns="http://www.w3.org/2000/svg" viewBox="0 0 640 512"><!--! Font Awesome Pro 6.4.0 by @fontawesome - https://fontawesome.com License - https://fontawesome.com/license (Commercial License) Copyright 2023 Fonticons, Inc. --><path d="M32 16V0H0V16 160v16 16V416v16 16 48 16H32V496 448H608v48 16h32V496 448 432 416 192 176 160 16 0H608V16 160H32V16zm0 176H608V416H32V192z"/></svg>
